icon/fa/map-location.svg

<svg xmlns="http://www.w3.org/2000/svg" viewBox="0 0 576 512"><!--! Font Awesome Free 6.1.2 by @fontawesome - https://fontawesome.com License - https://fontawesome.com/license/free (Icons: CC BY 4.0, Fonts: SIL OFL 1.1, Code: MIT License) Copyright 2022 Fonticons, Inc.--><path d="M273.2 311.1C241.1 271.9 167.1 174.6 167.1 120c0-66.27 54.6-120 120-120C354.3 0 408 53.73 408 120c0 54.6-73.1 151.9-105.2 191.1-7.7 10.5-21.9 10.5-29.6 0zM416 503V200.4c3.5-6.9 6.7-13.7 9.6-20.6.5-1.2 1-2.4 1.5-3.7l116-46.4c15.8-6.3 32.9 5.3 32.9 22.3v270.8c0 9.8-6 18.6-15.1 22.3L416 503zM15.09 187.3l122.51-49c2.4 14.2 7.3 28.3 12.8 41.5 2.9 6.9 6.1 13.7 9.6 20.6v251.4L32.91 502.7C17.15 508.1 0 497.4 0 480.4V209.6c0-9.8 5.975-19.5 15.09-22.3zM384 504.3l-192.9-54.9V255c21.4 31.3 43.2 59.6 57.1 76.1 20.5 26.5 59.1 26.5 79.6 0 13.9-16.5 35.7-44.8 56.2-76.1v249.3z"/></svg>

<svg xmlns="http://www.w3.org/2000/svg" viewBox="0 0 576 512" height="1em" width="1em">
<!--! Font Awesome Free 6.1.2 by @fontawesome - https://fontawesome.com License - https://fontawesome.com/license/free (Icons: CC BY 4.0, Fonts: SIL OFL 1.1, Code: MIT License) Copyright 2022 Fonticons, Inc.-->
  <path d="M273.2 311.1C241.1 271.9 167.1 174.6 167.1 120C167.1 53.73 221.7 0 287.1 0C354.3 0 408 53.73 408 120C408 174.6 334.9 271.9 302.8 311.1C295.1 321.6 280.9 321.6 273.2 311.1V311.1zM416 503V200.4C419.5 193.5 422.7 186.7 425.6 179.8C426.1 178.6 426.6 177.4 427.1 176.1L543.1 129.7C558.9 123.4 576 135 576 152V422.8C576 432.6 570 441.4 560.9 445.1L416 503zM15.09 187.3L137.6 138.3C140 152.5 144.9 166.6 150.4 179.8C153.3 186.7 156.5 193.5 160 200.4V451.8L32.91 502.7C17.15 508.1 0 497.4 0 480.4V209.6C0 199.8 5.975 190.1 15.09 187.3H15.09zM384 504.3L191.1 449.4V255C212.5 286.3 234.3 314.6 248.2 331.1C268.7 357.6 307.3 357.6 327.8 331.1C341.7 314.6 363.5 286.3 384 255L384 504.3z"/>
</svg>
